X: 2391
M: C
L: 1/8
K: Bb
!segno! (F/E/D/C/) |\
f=egf _ecAF | (3Bdc (3BAG FEDC |\
fecA F^FGA | B2B2B2 H:|
|: (cB) |\
=e2(=EG) Bceg | g^ege f2 (cB) |\
=ec=Bc dcbe | f=ege f2 :|


